images/youtube.svg

<svg width="30" height="22" viewBox="0 0 30 22" fill="none" xmlns="http://www.w3.org/2000/svg">
<path d="M29.3725 3.3C29.0275 2.00125 28.0112 0.9775 26.72 0.63C24.3812 2.23517e-07 15 0 15 0C15 0 5.61875 2.23517e-07 3.27875 0.63C1.98875 0.9775 0.9725 2 0.6275 3.3C0 5.655 0 10.5675 0 10.5675C0 10.5675 0 15.48 0.6275 17.835C0.9725 19.1337 1.98875 20.1575 3.28 20.505C5.61875 21.135 15 21.135 15 21.135C15 21.135 24.3813 21.135 26.7213 20.505C28.0113 20.1575 29.0275 19.135 29.3738 17.835C30 15.48 30 10.5675 30 10.5675C30 10.5675 30 5.655 29.3725 3.3ZM11.9325 15.0288V6.10625L19.7725 10.5675L11.9325 15.0288Z" fill="white"/>
</svg>

<svg width="30" height="22" fill="none" xmlns="http://www.w3.org/2000/svg"><path d="M29.372 3.3A3.77 3.77 0 0 0 26.72.63C24.381 0 15 0 15 0S5.619 0 3.279.63A3.769 3.769 0 0 0 .628 3.3C0 5.655 0 10.568 0 10.568s0 4.912.627 7.267a3.77 3.77 0 0 0 2.653 2.67c2.339.63 11.72.63 11.72.63s9.381 0 11.721-.63a3.773 3.773 0 0 0 2.653-2.67C30 15.48 30 10.567 30 10.567s0-4.912-.628-7.267Zm-17.44 11.729V6.106l7.84 4.462-7.84 4.46Z" fill="#fff"/></svg>
